X:1
T:Singing All the Time
T:Singing All the Time
T:George Coles Stebbins 
T:Edward Payson Hammond, 1865
T:Public Domain Courtesy of the Cyber Hymnal™
C:George Coles Stebbins
Z:Public Domain
Z:Courtesy of the Cyber Hymnal™
%%score ( 1 2 ) ( 3 4 )
L:1/8
Q:1/4=110
M:4/4
K:C
V:1 treble 
V:2 treble 
V:3 bass 
V:4 bass 
V:1
 [EG]2 | [Ec]2 [EG]2 [CE]2 [DF]2 | [FA]3 [EG] [EG]2 [EG]2 | [FA]2 [GB]2 [Gc]2 [Ad]2 | %4
w: 1.~I|feel like sing- ing|all the time, My|tears are wiped a-|
w: 2.~When|on the cross my|Lord I saw, Nailed|there by sins of|
w: 3.~When|fierce temp- ta- tions|try my heart, I|sing, Je- sus is|
w: 4.~The|won- drous sto- ry|of the Lamb, Tell|with that voice of|
 (c4 B2) [FG]2 | [Ec]2 [EG]2 [CE]2 [DF]2 | [FA]3 [EG] [EG]2 [Ac]2 | [GB]2 [DA]2 [DG]2 [D^F]2 | %8
w: way; * For|Je- sus is a|friend of mine, I’ll|serve Him ev- ery|
w: mine; * Fast|fell the burn- ing|tears; but now, I’m|sing- ing all the|
w: mine; * And|so, though tears at|times may start, I’m|sing- ing all the|
w: thine, * Till|o- thers, with the|glad new song Go|sing- ing all the|
 (G4 A2) ||"^Refrain" [FB]2 | [Ec]4 [EG]4 | [Fd]4 [FG]4 | [Ee]2 [Gc]2 [FB]2 [Ec]2 | [Gd]8 | %14
w: day. *||||||
w: time. *||||||
w: time. *||||||
w: time. *||||||
 [Ge]4 [Gd]4 | [Gc]4 ([GB]2 [FA]2) | [EG]2 [Gc]2 [FB]3 [Fd] | [Ec]6 |] %18
w: ||||
w: ||||
w: ||||
w: ||||
V:2
 x2 | x8 | x8 | x8 | G6 x2 | x8 | x8 | x8 | D6 || x2 | x8 | x8 | x8 | x8 | x8 | x8 | x8 | x6 |] %18
V:3
 [C,C]2 | [C,C]2 [C,C]2 [C,G,]2 [C,G,]2 | [C,C]3 [C,C] [C,C]2 [C,C]2 | %3
w: ~|~ ~ ~ ~|~ ~ ~ ~|
 [F,C]2 [D,D]2 [E,C]2 [F,F]2 | (E4 D2) [G,B,]2 | [C,C]2 [C,C]2 [C,G,]2 [C,G,]2 | %6
w: ~ ~ ~ ~|~ * ~|~ ~ ~ ~|
 [C,C]3 [C,C] [C,C]2 [C,E]2 | [D,D]2 [D,C]2 [D,B,]2 [D,A,]2 | (B,4 C2) || [G,D]2 | [C,C]4 [C,C]4 | %11
w: ~ ~ ~ ~|~ ~ ~ ~|~ *|I’m|sing- ing,|
 [G,,B,]4 [G,,B,]4 | [C,C]2 [E,C]2 [D,G,]2 [C,C]2 | [G,B,]8 | [C,C]4 [D,B,]4 | [E,C]4 [F,C]4 | %16
w: sing- ing,|Sing- ing all the|time;|Sing- ing,|sing- ing,|
 [G,C]2 [G,E]2 [G,D]3 [G,B,] | [C,C]6 |] %18
w: Sing- ing all the|time.|
V:4
 x2 | x8 | x8 | x8 | G,6 x2 | x8 | x8 | x8 | G,6 || x2 | x8 | x8 | x8 | x8 | x8 | x8 | x8 | x6 |] %18

